static/img/kroki/54d63247e77f9895b9afb5989c92c32d.svg

<?xml version="1.0" encoding="us-ascii" standalone="no"?><svg xmlns="http://www.w3.org/2000/svg" xmlns:xlink="http://www.w3.org/1999/xlink" contentStyleType="text/css" height="152px" preserveAspectRatio="none" style="width:348px;height:152px;" version="1.1" viewBox="0 0 348 152" width="348px" zoomAndPan="magnify"><defs/><g><!--class azure_postgresql_ad_administrator--><g id="elem_azure_postgresql_ad_administrator"><rect codeLine="23" fill="#3D176E" height="39.7891" id="azure_postgresql_ad_administrator" rx="2.5" ry="2.5" style="stroke:#000D19;stroke-width:0.5;" width="334" x="7" y="106.79"/><ellipse cx="22" cy="126.6845" fill="#ADD1B2" rx="11" ry="11" style="stroke:#181818;stroke-width:1.0;"/><path d="M24.9688,132.3252 Q24.3906,132.622 23.75,132.7627 Q23.1094,132.9189 22.4063,132.9189 Q19.9063,132.9189 18.5781,131.2783 Q17.2656,129.622 17.2656,126.497 Q17.2656,123.372 18.5781,121.7158 Q19.9063,120.0595 22.4063,120.0595 Q23.1094,120.0595 23.75,120.2158 Q24.4063,120.372 24.9688,120.6689 L24.9688,123.3877 Q24.3438,122.8095 23.75,122.5439 Q23.1563,122.2627 22.5313,122.2627 Q21.1875,122.2627 20.5,123.3408 Q19.8125,124.4033 19.8125,126.497 Q19.8125,128.5908 20.5,129.6689 Q21.1875,130.7314 22.5313,130.7314 Q23.1563,130.7314 23.75,130.4658 Q24.3438,130.1845 24.9688,129.6064 L24.9688,132.3252 Z " fill="#000000"/><text fill="#D9B8FF" font-family="Helvetica" font-size="17" lengthAdjust="spacing" textLength="292" x="41" y="132.5698">azure_postgresql_ad_administrator</text></g><!--class azure_postgresql_server--><g id="elem_azure_postgresql_server"><rect codeLine="26" fill="#3D176E" height="39.7891" id="azure_postgresql_server" rx="2.5" ry="2.5" style="stroke:#000D19;stroke-width:0.5;" width="243" x="52.5" y="7"/><ellipse cx="67.5" cy="26.8945" fill="#ADD1B2" rx="11" ry="11" style="stroke:#181818;stroke-width:1.0;"/><path d="M70.4688,32.5352 Q69.8906,32.832 69.25,32.9727 Q68.6094,33.1289 67.9063,33.1289 Q65.4063,33.1289 64.0781,31.4883 Q62.7656,29.832 62.7656,26.707 Q62.7656,23.582 64.0781,21.9258 Q65.4063,20.2695 67.9063,20.2695 Q68.6094,20.2695 69.25,20.4258 Q69.9063,20.582 70.4688,20.8789 L70.4688,23.5977 Q69.8438,23.0195 69.25,22.7539 Q68.6563,22.4727 68.0313,22.4727 Q66.6875,22.4727 66,23.5508 Q65.3125,24.6133 65.3125,26.707 Q65.3125,28.8008 66,29.8789 Q66.6875,30.9414 68.0313,30.9414 Q68.6563,30.9414 69.25,30.6758 Q69.8438,30.3945 70.4688,29.8164 L70.4688,32.5352 Z " fill="#000000"/><text fill="#D9B8FF" font-family="Helvetica" font-size="17" lengthAdjust="spacing" textLength="201" x="86.5" y="32.7798">azure_postgresql_server</text></g><!--link azure_postgresql_server to azure_postgresql_ad_administrator--><g id="link_azure_postgresql_server_azure_postgresql_ad_administrator"><path codeLine="29" d="M174,47.22 C174,64.36 174,83.27 174,100.41 " fill="none" id="azure_postgresql_server-to-azure_postgresql_ad_administrator" style="stroke:#1A83AF;stroke-width:2.0;"/><polygon fill="#1A83AF" points="174,106.41,178,97.41,174,101.41,170,97.41,174,106.41" style="stroke:#1A83AF;stroke-width:2.0;"/></g><!--SRC=[XP91Qy9048Nl-HKBdWNJqAgNGYf8Uv5IUoj5nkoiBYQxwSoeQEb_Rwosh4cZiATvtyvxCypIQbHObB9J1HPp98vuPLq918LAYVnsv7DFgcCCcAHV5yVUoLLW0WMgHymtA3Q3El6wjDdA8REw2QG7o5OByckdZ-s5m74bePE06kN0d8gGdQy5Wp1wE1yOKoVhJJk9ZljtsC0yQQGJqklrT3oi8rUjBixzHqpj7bKSBctY1Hin6nO_rCMK1o88sHZqLs_D-0nQMxTGjq7jvPY97D9PVRe4xRS7sa3EeGqB4dhPbJXgJ8N3WJRzV-6dDZZA3gjJi5yJpahFiY3aZtm6kdg5TPQhGv7gmsSKVRN1ZBJ14z8cTjywSJf8ql5xz_wwNVGD]--></g></svg>

<svg xmlns="http://www.w3.org/2000/svg" width="348" height="152" viewBox="0 0 348 152"><rect width="334" height="39.789" x="7" y="106.79" fill="#3D176E" rx="2.5" ry="2.5" style="stroke:#000d19;stroke-width:.5"/><circle cx="22" cy="126.684" r="11" fill="#ADD1B2" style="stroke:#181818;stroke-width:1"/><path d="M24.969 132.325q-.578.297-1.219.438-.64.156-1.344.156-2.5 0-3.828-1.64-1.312-1.657-1.312-4.782t1.312-4.781q1.328-1.656 3.828-1.656.703 0 1.344.156.656.156 1.219.453v2.719q-.625-.579-1.219-.844-.594-.281-1.219-.281-1.343 0-2.031 1.078-.687 1.062-.687 3.156t.687 3.172q.688 1.062 2.031 1.062.625 0 1.219-.265.594-.281 1.219-.86z"/><text x="41" y="132.57" fill="#D9B8FF" font-family="Helvetica" font-size="17" textLength="292">azure_postgresql_ad_administrator</text><rect width="243" height="39.789" x="52.5" y="7" fill="#3D176E" rx="2.5" ry="2.5" style="stroke:#000d19;stroke-width:.5"/><circle cx="67.5" cy="26.895" r="11" fill="#ADD1B2" style="stroke:#181818;stroke-width:1"/><path d="M70.469 32.535q-.578.297-1.219.438-.64.156-1.344.156-2.5 0-3.828-1.64-1.312-1.657-1.312-4.782t1.312-4.781q1.328-1.656 3.828-1.656.703 0 1.344.156.656.156 1.219.453v2.719q-.625-.578-1.219-.844-.594-.281-1.219-.281-1.344 0-2.031 1.078-.687 1.062-.687 3.156T66 29.879q.688 1.062 2.031 1.062.625 0 1.219-.265.594-.281 1.219-.86z"/><text x="86.5" y="32.78" fill="#D9B8FF" font-family="Helvetica" font-size="17" textLength="201">azure_postgresql_server</text><path fill="none" d="M174 47.22v53.19" style="stroke:#1a83af;stroke-width:2"/><path fill="#1A83AF" d="m174 106.41 4-9-4 4-4-4z" style="stroke:#1a83af;stroke-width:2"/></svg>
